!!!COM: Fanny Hensel
!!!OTL: Abendlich schon rauscht der Wald
**kern	**text	**dynam	**kern	**text	**dynam	**kern	**text	**dynam	**kern	**text	**dynam
*part4	*part4	*part4	*part3	*part3	*part3	*part2	*part2	*part2	*part1	*part1	*part1
*staff4	*staff4	*	*staff3	*staff3	*	*staff2	*staff2	*	*staff1	*staff1	*
*I"Bass	*	*	*I"Tenor	*	*	*I"Alt	*	*	*I"Sopran	*	*
*clefF4	*	*	*clefGv2	*	*	*clefG2	*	*	*clefG2	*	*
*k[]	*	*	*k[]	*	*	*k[]	*	*	*k[]	*	*
*C:	*	*	*C:	*	*	*C:	*	*	*C:	*	*
*M4/4	*	*	*M4/4	*	*	*M4/4	*	*	*M4/4	*	*
*met(c)	*	*	*met(c)	*	*	*met(c)	*	*	*met(c)	*	*
=1	=1	=1	=1	=1	=1	=1	=1	=1	=1	=1	=1
!	!	!LO:DY:a	!	!	!LO:DY:a	!	!	!LO:DY:a	!LO:TX:a:B:t=Allegro ma non troppo	!	!LO:DY:a
4.c	A-	p	4.c	A-	p	4.cc	A-	p	4.cc	A-	p
8B	-bend-	.	8B	-bend-	.	8b	-bend-	.	8b	-bend-	.
4A	-lich	.	4A	-lich	.	4a	-lich	.	4a	-lich	.
4AA	schon	.	4A	schon	.	4c	schon	.	4e	schon	.
=2	=2	=2	=2	=2	=2	=2	=2	=2	=2	=2	=2
4AA	rauscht	.	4D	rauscht	.	4d	rauscht	.	4f	rauscht	.
4AA	der	.	4F	der	.	4B	der	.	4a	der	.
2AA	Wald.	.	2A	Wald.	.	2c	Wald.	.	2e	Wald.	.
=3	=3	=3	=3	=3	=3	=3	=3	=3	=3	=3	=3
!	!	!LO:DY:a	!	!	!LO:DY:a	!	!	!LO:DY:a	!	!	!LO:DY:a
4A	aus	<	4A	aus	<	4c	aus	<	4f	aus	<
4A	den	.	4A	den	.	4c	den	.	4f	den	.
4G	tie-	.	4G	tie-	.	4B	tie-	.	4e	tie-	.
4F	-fen	[	4A	-fen	[	4A	-fen	[	4d#X	-fen	[
=4	=4	=4	=4	=4	=4	=4	=4	=4	=4	=4	=4
2E	Grün-	.	2c	Grün-	.	2d#X	Grün-	.	2a	Grün-	.
4E	-den,	.	4B	-den,	.	4e	-den,	.	4g#X	-den,	.
4r	.	.	4r	.	.	4r	.	.	4r	.	.
=5	=5	=5	=5	=5	=5	=5	=5	=5	=5	=5	=5
!	!	!LO:DY:a	!	!	!LO:DY:a	!	!	!LO:DY:a	!	!	!LO:DY:a
4.c	dro-	p	4.c	dro-	p	4.cc	dro-	p	4.cc	dro-	p
8B	-ben	.	8B	-ben	.	8b	-ben	.	8b	-ben	.
4A	wird	.	4A	wird	.	4a	wird	.	4a	wird	.
4AA	der	.	4A	der	.	4c	der	.	4e	der	.
=6	=6	=6	=6	=6	=6	=6	=6	=6	=6	=6	=6
4AA	Herr	.	4C	Herr	.	4c	Herr	.	4f	Herr	.
4AA	nun	.	4E-X	nun	.	4c	nun	.	4f#X	nun	.
2BB	bald	.	2D	bald	.	2d	bald	.	2g	bald	.
=7	=7	=7	=7	=7	=7	=7	=7	=7	=7	=7	=7
!LO:TX:b:i:t=cresc.	!	!	!LO:TX:b:i:t=cresc.	!	!	!LO:TX:b:i:t=cresc.	!	!	!LO:TX:b:i:t=cresc.	!	!
4C	an	.	4G	an	.	4e	an	.	4g	an	.
4E	die	.	4G	die	.	4c	die	.	4cc	die	.
4D	Ster-	.	4G#X	Ster-	.	4f	Ster-	.	4b	Ster-	.
4C	-ne	.	4A	-ne	.	4f	-ne	.	4cc	-ne	.
=8	=8	=8	=8	=8	=8	=8	=8	=8	=8	=8	=8
2GG	zün-	.	2B	zün-	.	2f	zün-	.	(4.ee	zün-	.
.	.	.	.	.	.	.	.	.	8dd)	.	.
4C	-den.	.	4Gn	-den.	.	4e	-den.	.	4cc	-den.	.
4r	.	.	4r	.	.	4r	.	.	4r	.	.
=9	=9	=9	=9	=9	=9	=9	=9	=9	=9	=9	=9
!	!	!	!	!	!	!	!	!	!	!	!LO:DY:a
1r	.	.	1r	.	.	1r	.	.	4.cc	Wie	p
.	.	.	.	.	.	.	.	.	8b	so	.
.	.	.	.	.	.	.	.	.	4b	stil-	.
.	.	.	.	.	.	.	.	.	4a#X	-le	.
=10	=10	=10	=10	=10	=10	=10	=10	=10	=10	=10	=10
!	!	!LO:DY:a	!	!	!LO:DY:a	!	!	!LO:DY:a	!	!	!
4.C	Wie	p	4.G	Wie	p	4.e	Wie	p	1r	.	.
8C	so	.	8F#X	so	.	8d#X	so	.	.	.	.
4C	stil-	.	4F#	stil-	.	4d#	stil-	.	.	.	.
4C	-le	.	4G	-le	.	4e	-le	.	.	.	.
=11	=11	=11	=11	=11	=11	=11	=11	=11	=11	=11	=11
1r	.	.	1r	.	.	1r	.	.	4a#X	in	.
.	.	.	.	.	.	.	.	.	4a#	den	.
.	.	.	.	.	.	.	.	.	4ee	Schlün-	.
.	.	.	.	.	.	.	.	.	4dd#X	-den,	.
=12	=12	=12	=12	=12	=12	=12	=12	=12	=12	=12	=12
4B	in	.	4d#X	in	.	4f#X	in	.	2r	.	.
4B	den	.	4d#	den	.	4f#	den	.	.	.	.
4B	Schlün-	.	4e	Schlün-	.	4g	Schlün-	.	4b	wie	.
4B	-den,	.	4e	-den,	.	4f#	-den,	.	4b	so	.
=13	=13	=13	=13	=13	=13	=13	=13	=13	=13	=13	=13
1r	.	.	2r	.	.	1r	.	.	4ee	stil-	.
.	.	.	.	.	.	.	.	.	4dd	-le,	.
.	.	.	4e	wie	.	.	.	.	4cc	wie	.
.	.	.	4c	so	.	.	.	.	4a	so	.
=14	=14	=14	=14	=14	=14	=14	=14	=14	=14	=14	=14
2r	.	.	4A	stil-	.	2r	.	.	4f	stil-	.
.	.	.	4F	-le	.	.	.	.	4d	-le	.
4D	in	.	4F	in	.	4B	in	.	4a	in	.
4D#X	den	.	4F#X	den	.	4c	den	.	4a	den	.
=15	=15	=15	=15	=15	=15	=15	=15	=15	=15	=15	=15
2E	Schlün-	.	2c	Schlün-	.	2e	Schlün-	.	2a	Schlün-	.
4E	-den,	.	4B	-den,	.	4e	-den,	.	4g#X	-den,	.
4r	.	.	4r	.	.	4r	.	.	4r	.	.
=16	=16	=16	=16	=16	=16	=16	=16	=16	=16	=16	=16
4.c	a-	.	4.c	a-	.	4.cc	a-	.	4.cc	a-	.
8B	-bend-	.	8B	-bend-	.	8b	-bend-	.	8b	-bend-	.
4A	-lich	.	4A	-lich	.	4a	-lich	.	4a	-lich	.
4AA	nur	.	4A	nur	.	4c	nur	.	4e	nur	.
=17	=17	=17	=17	=17	=17	=17	=17	=17	=17	=17	=17
4AA	rauscht	.	4D	rauscht	.	4d	rauscht	.	4f	rauscht	.
4AA	der	.	4F	der	.	4B	der	.	4a	der	.
2AA	Wald	.	2A	Wald	.	2c	Wald	.	2e	Wald	.
!!pagebreak:original
=18	=18	=18	=18	=18	=18	=18	=18	=18	=18	=18	=18
1r	.	.	1r	.	.	1r	.	.	4f	aus	.
.	.	.	.	.	.	.	.	.	4f	den	.
.	.	.	.	.	.	.	.	.	4e	tie-	.
.	.	.	.	.	.	.	.	.	4d#X	-fen	.
=19	=19	=19	=19	=19	=19	=19	=19	=19	=19	=19	=19
2r	.	.	2r	.	.	2r	.	.	(2cc	Grün-	.
2E	der	.	2B	der	.	2d	der	.	2g#X)	.	.
=20	=20	=20	=20	=20	=20	=20	=20	=20	=20	=20	=20
4AA	Wald!	.	4A	Wald!	.	4c	Wald!	.	2a	-den!	.
4r	.	.	4r	.	.	4r	.	.	.	.	.
2r	.	.	2r	.	.	2r	.	.	2r	.	.
=21	=21	=21	=21	=21	=21	=21	=21	=21	=21	=21	=21
!	!	!LO:DY:a	!	!	!LO:DY:a	!	!	!LO:DY:a	!	!	!LO:DY:a
4A	Al-	<	4c#X	Al-	<	4e	Al-	<	4cc#X	Al-	<
4A	-les	.	4c#	-les	.	4e#X	-les	.	4cc#	-les	.
4.A	geht	.	4.d	geht	.	4.f#X	geht	.	4.cc#	geht	.
8A	zu	[	8d	zu	[	8f#	zu	[	8b	zu	[
=22	=22	=22	=22	=22	=22	=22	=22	=22	=22	=22	=22
!	!	!LO:DY:a	!	!	!LO:DY:a	!	!	!LO:DY:a	!	!	!LO:DY:a
4A	sei-	>	4d	sei-	>	4f#X	sei-	>	4a	sei-	>
4A	-ner	.	4d	-ner	.	4fn	-ner	.	4fn	-ner	.
2A	Ruh,	]]	2c#X	Ruh,	.	2e	Ruh,	]]	2e	Ruh,	]]
=23	=23	=23	=23	=23	=23	=23	=23	=23	=23	=23	=23
4G#X	wie	.	4B	wie	]	4d	wie	.	4f	wie	.
4A	die	.	4c#X	die	.	4c#X	die	.	4e	die	.
4G#	Welt	.	4B	Welt	.	4d	Welt	.	4f	Welt	.
4A	ver-	.	4c#	ver-	.	4c#	ver-	.	4e	ver-	.
=24	=24	=24	=24	=24	=24	=24	=24	=24	=24	=24	=24
2F	-brau-	.	2B	-brau-	.	2d	-brau-	.	2a	-brau-	.
4E	-se	.	4B	-se	.	4d	-se	.	4g#X	-se	.
4r	.	.	4ryy	.	.	4r	.	.	4r	.	.
=25	=25	=25	=25	=25	=25	=25	=25	=25	=25	=25	=25
!	!	!LO:DY:a	!	!	!LO:DY:a	!	!	!LO:DY:a	!	!	!LO:DY:a
!	!	!LO:DY:a	!	!	!LO:DY:a	!	!	!LO:DY:a	!	!	!LO:DY:a
4A	schau-	pp <	4c	schau-	pp <	4e	schau-	pp <	4ccn	schau-	pp <
4A	-ernd	.	4c	-ernd	.	4e	-ernd	.	4cc	-ernd	.
4.A	hört	.	4.d	hört	.	4.f	hört	.	4.cc	hört	.
8A	der	[	8d	der	[	8f	der	[	8b	der	[
=26	=26	=26	=26	=26	=26	=26	=26	=26	=26	=26	=26
!	!	!LO:DY:a	!	!	!LO:DY:a	!	!	!LO:DY:a	!	!	!LO:DY:a
4A	Wand-	>	4d	Wand-	>	4f	Wand-	>	4a	Wand-	>
4ryy	-rer	.	4d	-rer	.	4f	-rer	.	4f	-rer	.
2A	zu,	]]	2c	zu,	]]	2e	zu,	]]	2e	zu,	]]
=27	=27	=27	=27	=27	=27	=27	=27	=27	=27	=27	=27
4G#X	sehnt	.	4B	sehnt	.	4d	sehnt	.	4f	sehnt	.
4A	sich	.	4c	sich	.	4c	sich	.	4e	sich	.
4F	tief	.	4G#X	tief	.	4d	tief	.	4b	tief	.
4F	nach	.	4A	nach	.	4d#X	nach	.	8ccL	nach	.
.	.	.	.	.	.	.	.	.	8aJ	.	.
=28	=28	=28	=28	=28	=28	=28	=28	=28	=28	=28	=28
2E;	Hau-	.	2c;	Hau-	.	2a;	Hau-	.	2dd#X;	Hau-	.
2E;	-se,	.	2B;	-se,	.	2g#X;	-se,	.	2ee;	-se,	.
=29	=29	=29	=29	=29	=29	=29	=29	=29	=29	=29	=29
!	!	!	!	!	!	!	!	!	!	!	!LO:DY:a
1r	.	.	1r	.	.	1r	.	.	4.ff	schau-	f
.	.	.	.	.	.	.	.	.	8ee	-ernd	.
.	.	.	.	.	.	.	.	.	4ddn	hört	.
.	.	.	.	.	.	.	.	.	4cc	der	.
=30	=30	=30	=30	=30	=30	=30	=30	=30	=30	=30	=30
!	!	!	!	!	!LO:DY:a	!	!	!LO:DY:a	!	!	!
1r	.	.	4.d	sehnt	f >	4.f	sehnt	f	4b	Wand-	.
.	.	.	.	.	.	.	.	.	4a	-rer	.
!	!	!	!	!	!	!	!	!LO:DY:a	!	!	!
.	.	.	8c	sich	.	8e	sich	>	.	.	.
.	.	.	4B	tief	.	4d	tief	.	4g#X	zu	.
.	.	.	4A	nach	]	4c	nach	]	4r	.	.
=31	=31	=31	=31	=31	=31	=31	=31	=31	=31	=31	=31
!	!	!LO:DY:a	!	!	!LO:DY:a	!	!	!LO:DY:a	!	!	!LO:DY:a
4.d	sehnt	f >	(4.G#X	Hau-	>	(4.B	Hau-	>	4ff	sehnt	>
.	.	.	.	.	.	.	.	.	4ee	sich	.
8c	sich	.	8A)	.	.	8c)	.	.	.	.	.
4B	tief	.	4B	-se	.	4d	-se	.	4dd	tief	.
4A	nach	]	4c	nach	]	4e	nach	]	4cc	nach	]
=32	=32	=32	=32	=32	=32	=32	=32	=32	=32	=32	=32
2G#X;	Hau-	.	2d;	Hau-	.	2f;	Hau-	.	2cc;	Hau-	.
2G#;	-se.	.	2d;	-se.	.	2f;	-se.	.	2b;	-se.	.
=33	=33	=33	=33	=33	=33	=33	=33	=33	=33	=33	=33
4.c	Hier	.	4.c	Hier	p	4.cc	Hier	p	4.cc	Hier	p
8B	in	.	8B	in	.	8b	in	.	8b	in	.
4A	Wal-	.	4A	Wal-	.	4a	Wal-	.	4a	Wal-	.
4AA	-des	.	4A	-des	.	4c	-des	.	4e	-des	.
=34	=34	=34	=34	=34	=34	=34	=34	=34	=34	=34	=34
4AA	grü-	.	4D	grü-	.	4d	grü-	.	4f	grü-	.
4AA	-ner	.	4F	-ner	.	4B	-ner	.	4a	-ner	.
4ryy	Klau-	.	4E	Klau-	.	4c	Klau-	.	4a	Klau-	.
4AA	-se,	.	4A	-se,	.	4c	-se,	.	4e	-se,	.
=35	=35	=35	=35	=35	=35	=35	=35	=35	=35	=35	=35
!	!	!	!	!	!	!	!	!	!	!	!LO:DY:a
1r	.	.	1r	.	.	1r	.	.	(4.cc	Herz,	>
.	.	.	.	.	.	.	.	.	8b)	geh’	.
.	.	.	.	.	.	.	.	.	4a	end-	.
.	.	.	.	.	.	.	.	.	4f	-lich	.
=36	=36	=36	=36	=36	=36	=36	=36	=36	=36	=36	=36
2r	.	.	2r	.	.	2r	.	.	(2d#X	auch	]
2E	zur	.	2B	zur	.	2d	zur	.	4e)	.	.
.	.	.	.	.	.	.	.	.	4g#X	zur	.
=37	=37	=37	=37	=37	=37	=37	=37	=37	=37	=37	=37
2AA	Ruh’!	.	2A	Ruh’!	.	2c	Ruh’!	.	2a	Ruh’!	.
==	==	==	==	==	==	==	==	==	==	==	==
*-	*-	*-	*-	*-	*-	*-	*-	*-	*-	*-	*-
!!!system-decoration: [(s1,s2,s3,s4)]